X:1
T:Title
%%score { ( 1 3 ) | ( 2 4 ) }
L:1/8
M:4/4
K:Db
V:1 treble nm="Grand Piano"
V:3 treble 
V:2 bass 
V:4 bass 
V:1
 z4 z2[Q:1/4=96] [A,DF][A,EG] | [DFA]2 [DFA]2 [A,DF][A,EG][DFA][DFB] | B4 z4 | %3
 [EGc]2 [DGB]2 [CGA][CGB][CGA][CEG] |[M:3/4] [DF]6 |[M:1/4] [DF][EG] | %6
[M:4/4] [FA]2 [FA]2 [DF][FA][Fd][Fc] | c4 B2 fe | edAd dcBc |[M:3/4] [Fd]6 |[M:1/4] [DF][EG] | %11
[M:4/4] [FA]4 z4 | [Ac]4 z4 | AAcB ABA[CEG] | [A,DF]6 [A,DF][A,EG] | [FA]4 z4 | [Ec]4 z4 | %17
 edAd dcBc |[M:3/4] d2- [Gd-]>[Gd-] [Fd]2 |] %19
V:2
 z4 z2 D,D, | D,2 D,2 D,D,D,D, | z4[K:treble] A2 z G | A,,2 A,,2 A,,A,,A,,A,, |[M:3/4] D,6 | %5
[M:1/4] [D,A,]2 |[M:4/4] [D,D]2 [D,D]2 [D,A,][D,D][D,D][D,D] | [G,DG]6 [G,B,G]2 | %8
 [A,DF]2 [DF][FA] [A,EG][A,EG][A,EG][A,EG] |[M:3/4][K:bass] [D,D]6 |[M:1/4] [D,A,][D,A,] | %11
[M:4/4] [D,D]D,D,D, D,2 D,D, | G,G,G,G,[K:treble] [G,DG]2 [G,DG][G,DG] | %13
 [A,DF][A,DF][A,EG][A,DG] [A,CG][A,CG][A,CG][K:bass]A,, | D,6 D,D, | %15
 D,D,D,D, [D,A,]2 [D,A,][F,=A,] | [F,=A,]F,F,E, [G,B,D]2[K:treble] [G,B,G][G,B,G] | %17
 [A,DF][A,DF][A,DF][A,FA] [A,EG][A,EG][A,EG][A,EG] |[M:3/4][K:bass] z2 B,>B, A,2 |] %19
V:3
 x8 | x8 | [CG]6 [GA]A | x8 |[M:3/4] x6 |[M:1/4] x2 |[M:4/4] x8 | x8 | x8 |[M:3/4] x6 |[M:1/4] x2 | %11
[M:4/4] z DDD [A,DF]2 [DFd][DFA] | DDDD B2 BB | x8 | x8 | DDDD [Fd]2 [Fd][Ec] | z =A,A,A, B2 ge | %17
 x8 |[M:3/4] [DF]2 z2 z2 |] %19
V:4
 x8 | x8 | E,6[K:treble] [E,C]2 | x8 |[M:3/4] x6 |[M:1/4] x2 |[M:4/4] x8 | x8 | z2 A,2 z4 | %9
[M:3/4][K:bass] x6 |[M:1/4] x2 |[M:4/4] x8 | x4[K:treble] x4 | x7[K:bass] x | x8 | x8 | %16
 x6[K:treble] x2 | x8 |[M:3/4][K:bass] D,6 |] %19

